X: 1
T:Acacia -- Reel
M:2/4
L:1/16
R:reel
B:Ryan's Mammoth Collection
N:309
Z:Contributed by Ray Davies,  ray:davies99.freeserve.co.uk
K:G
"_mf"u((3DEF)|\
vG2vGA BcdB | {d}cBcd .e2((3def) | {a}gfge dBGB | cBAG FADF |
vG2vGA BcdB | {d}cBcd edef | gfge dBGA | BGAF G2 :|
|:"_f"u((3def)|\
{a}gfga bgdB |{d}cBcd edef | {a}gfga b"4"c'"3"a"2"g |\
 fdef gfga |
bagb agfa | {a}gfge dBGB | dgfg ecAF | G2G2G2 :|
